src/assets/duotone/Lamp.svg

<svg width="24" height="24" viewBox="0 0 24 24"  xmlns="http://www.w3.org/2000/svg">
<path opacity="0.4" d="M18.2101 14.69H5.79011C4.13011 14.69 3.13011 13.38 3.57011 11.78L5.77011 3.7C6.02011 2.77 7.03011 2 7.99011 2H16.0101C16.9701 2 17.9801 2.77 18.2301 3.7L20.4301 11.78C20.8701 13.38 19.8701 14.69 18.2101 14.69Z" />
<path d="M16.75 21.2504C16.75 21.6604 16.41 22.0004 16 22.0004H8C7.59 22.0004 7.25 21.6604 7.25 21.2504C7.25 20.8404 7.59 20.5004 8 20.5004H11.25V14.6904H12.75V20.5004H16C16.41 20.5004 16.75 20.8404 16.75 21.2504Z" />
</svg>

<?xml version="1.0" encoding="UTF-8"?>
<svg width="24" height="24" viewBox="0 0 24 24" xmlns="http://www.w3.org/2000/svg">
 <path d="m18.21 14.69h-12.42c-1.66 0-2.66-1.31-2.22-2.91l2.2-8.08c0.25-0.93 1.26-1.7 2.22-1.7h8.02c0.96 0 1.97 0.77 2.22 1.7l2.2 8.08c0.44 1.6-0.56 2.91-2.22 2.91z" opacity=".4"/>
 <path d="m16.75 21.25c0 0.41-0.34 0.75-0.75 0.75h-8c-0.41 0-0.75-0.34-0.75-0.75s0.34-0.75 0.75-0.75h3.25v-5.81h1.5v5.81h3.25c0.41 0 0.75 0.34 0.75 0.75z"/>
</svg>
